X:1
Q:1/4=90
L:1/8
M:1/8
K:C clef=G2
V:1
%%MIDI program 52
z|z|z|z|
z|z|z|z|
z|z|z|z|
z|z|z|z|
z|z|z|z|
z|z|z|z|
z|z|z|z|
z|z|z|z|
z|^C3/16D7/8-|D31/32|F3/16^F7/8-|
^F31/32|^G3/16A7/8-|A31/32|^c3/16(5:4d|
d31/32|^c-|^c31/64d31/64|e-|
e31/64d31/64|^c-|^c31/64B31/64|A-|
A31/32|A31/32|A31/64B31/64|A-|
A31/64G31/64|^F-|^F31/64E31/64|D3/4(3:2E/2-|
E3/8D3/4|d-|d31/64^c31/64|^c31/64d31/64|
^c31/64B31/64|A-|A-|A-|
A31/32|A31/32|A31/64B31/64|A31/32|
^F31/32|G31/64A31/64|G31/64^F31/64|E-|
E31/64D31/64|A31/32|A-|A31/32|
A31/32|^G31/64A31/64|B31/64^G31/64|A-|
A31/32|^C3/16D7/8-|D31/32|^F31/32|
E31/32|E31/32|A31/32|A31/64G31/64|
^F31/64E31/64|D31/32|d31/64^c31/64|B31/32|
^c31/32|e31/32|^c31/32|A-|
A31/32|c3/16^c7/8-|^c31/32|A-|
A31/32|F3/16^F7/8-|^F31/32|^G31/32|
^G31/32|A-|A31/32|B-|
B31/64B31/64|A-|A-|A-|
A31/32|^D3/16E7/8-|E31/32|E31/32|
^F31/32|^G31/32|A31/32|B31/32|
^c31/32|A3/16^c7/8-|^c31/32|^c31/32|
B31/32|A-|A-|A-|
A31/32|A3/16^c7/8-|^c31/32|A-|
A31/32|F3/16^F7/8-|^F31/32|G31/32|
G31/32|^G3/16A7/8-|A31/32|B31/32|
^c31/32|A-|A-|A-|
A31/32|^D3/16E7/8-|E31/32|E31/32|
^F31/32|G31/32|A31/32|B31/32|
^c31/32|d-|d31/32|^c31/32|
e31/32|d-|d-|d31/32
L:1/8
M:1/8
K:C clef=G2
V:2
%%MIDI program 0
D15/32D15/32|[B,-D-]|[B,D]31/64G31/64|[D-B-]|
[DB]31/64G31/64|[D-B-]|[DB]31/32|G15/16|
D15/32D15/32|[B,-D-]|[B,D]31/64G31/64|[D-B-]|
[DB]31/64G31/64|[^F-c-d-]|[^Fcd]31/32|G15/16|
D15/32D15/32|[B,-D-]|[B,D]31/64G31/64|[D-B-]|
[DB]31/64G31/64|[D-B-]|[DB]31/32|G15/16|
D15/32D15/32|[B,D]31/32|E31/64D31/64|[^C-]/2[^CD]31/64|
[C-E]31/64[C^F]31/64|[B,-D-G-]|[B,DG]7/8z/8|z|
z|^C3/16D7/8-|D31/32|F3/16^F7/8-|
^F31/32|^G3/16A7/8-|A31/32|^c3/16[D-d-]7/8|
[Dd]31/32|[A-^c-]|[A^c]31/64d31/64|[^c-e-]|
[^ce]31/64d31/64|[E-G-^c-]|[EG^c]31/64[EGB]31/64|[G-A-^C-]|
[GA^C]7/8z/8|[D^FA]31/32|A31/64B31/64|[D-^F-A-]|
[D^FA]31/64G31/64|[A,-^C-^F-]|[A,^C^F]31/64E31/64|D3/4(3:2E/2-|
E3/8D3/4|[E-A-d-]|[EAd]31/64[EA^c]31/64|[D-^G-^c]31/64[D-^G-d]31/64|
[D-^G-^c]31/64[D^GB]31/64|[^CA]15/16|A15/32A15/32|A15/16|
A15/16|[^FA]31/64z/2|[^FA]31/64[GB]31/64|[^FA]15/16|
^F31/64z/2|[E-G]31/64[E-A]31/64|[E-G]31/64[E^F]31/64|[B,-E-]|
[B,E]31/64[B,-D]15/32|[^C-A]15/16|[A-^C]7/8[A-]/8|[D-A]7/8[D-]/8|
[A-D]7/8|[D-^G]31/64[D-A]31/64|[D-B]31/64[D^G]31/64|[A-^C-]|
[A^C]7/8z/8|^C3/16D7/8-|D7/16D15/32|^F15/16|
E15/16|E31/32|A15/16|[A,-^C-A]31/64[A,-^C-G]31/64|
[A,-^C-^F]31/64[A,-^C-E]15/32|[B,D]15/16|d31/64^c31/64|B15/16|
^c31/64z/2|[E^Ge]31/64z/2|[D^G^c]31/64z/2|[^C-E-A-]|
[^CEA]7/8z/8|c3/16[A-^c-]7/8|[A^c]7/8z/8|[^C-A-]|
[^CA]7/8z/8|F3/16^F7/8-|^F7/8z/8|[B,-E-^G-]|
[B,E^G]7/8z/8|[^C-E-A-]|[^CEA]7/16[A-^CE]3/8|[E-^G-B-]|
[E^GB]7/16[B-E^G]3/8|[^CA]15/16|A15/32A15/32|A15/16|
A15/16|[^C-^D]3/16[E-^C-]7/8|[E^C]7/8|[^C-E]15/16|
[^F-^C]7/8|[E-^G]15/16|[A-E]7/8|[E-^G-B]15/16|
[^c-E^G]7/8|A3/16^c7/8-|^c7/8z/8|[E-^G-^c]15/16|
[B-E^G]7/8|[A-^C-E-]|[A^CE]7/8z/8|A15/16|
A15/16|A3/16^c7/8-|^c7/8z/8|A-|
A7/8z/8|[D-F]3/16[^F-D-]7/8|[^FD]7/8|[G-D]15/16|
[G,-G]7/8|^G3/16[^C-A-]7/8|[^CA]7/16A15/32|[E-^G-B]15/16|
[^c-E^G]7/8|[^C-A-]|[^C-A-]|[^C-A-]|
[^CA]3/4z/4|[A-^c-^d]3/16[e-A-^c-]7/8|[eA^c]7/8[e-]/8|[A-^c-e]7/8[A-^c-]/8|
[^f-A^c]7/8|[e-Gg]15/16|[A-a-e]7/8|[g-Bb]15/16|
[^c-^c'-g]7/8|[d-^f-d'-]|[d^fd']7/8z/8|[g-^c^c']15/16|
[e-e'-g]7/8|[d-^f-d'-]|[d-^f-d'-]|[d^fd']7/8(5:3z/4
L:1/8
M:1/8
K:C clef=F4
V:3
%%MIDI program 0
z|[G,,-D,-G,-]|[G,,D,G,]7/8z/8|[G,,-D,-G,-]|
[G,,D,G,]7/8z/8|[G,,D,G,]15/16|G,15/32G,15/32|G,15/16|
z|[G,,-G,-]|[G,,G,]7/8z/8|[G,,-G,-]|
[G,,G,]7/8z/8|D,,15/16|D,15/32D,15/32|G,,15/16|
z|G,,15/16|D,15/16|G,,15/16|
D,15/16|G,,15/16|G,15/32G,15/32|G,15/16|
z|G,,15/16|D,15/16|D,,15/16|
D,15/16|G,,-|G,,7/8z/8|z|
z|[D,,-D,-]|[D,,D,]7/8z/8|[^F,,-^F,-]|
[^F,,^F,]7/8z/8|[A,,-A,-]|[A,,A,]7/8z/8|D,-|
D,7/8z/8|[G,-A,,]15/16|[E,-G,]7/8|[G,-A,,]15/16|
[E,-G,]7/8|E,,15/16|E,15/16|A,,-|
A,,7/8z/8|D,-|D,7/8z/8|D,-|
D,7/8z/8|A,,-|A,,7/8z/8|[D,-^F,-]|
[D,^F,]7/8z/8|E,-|E,7/8z/8|E,,-|
E,,7/8z/8|A,,15/16|A,15/32A,15/32|A,15/16|
A,15/16|D,15/16|A,15/16|D,15/16|
A,15/16|A,,-|A,,7/8z/8|B,,15/16|
^F,15/16|^F,,15/16|^F,15/16|B,,15/16|
^F,15/16|E,15/16|E,,15/16|A,,-|
A,,7/8z/8|[D,-^F,-A,-]|[D,^F,A,]7/8z/8|[D,-^F,-A,-]|
[D,^F,A,]7/8z/8|[^C,-A,-]|[^C,A,]7/8z/8|[^F,,-^F,-]|
[^F,,^F,]7/8z/8|B,,15/16|^F,15/16|[B,D]15/16|
[A,^C]15/16|E,,15/16|E,15/16|A,,-|
A,,7/8z/8|^F,,15/16|^F,15/16|^C,15/16|
F,15/16|^F,-|^F,7/8z/8|E,-|
E,7/8z/8|A,,-|A,,7/8z/8|[E,,-E,-]|
[E,,E,]7/8z/8|[A,,E,]15/16|A,15/32A,15/32|A,15/16|
A,15/16|E,-|E,7/8z/8|A,,-|
A,,7/8z/8|E,-|E,7/8z/8|E,-|
E,7/8z/8|A,,-|A,,7/8z/8|E,-|
E,7/8z/8|A,-|A,7/8z/8|z|
z|^F,,15/16|^F,15/16|^C,15/16|
F,15/16|[D,-A,-]|[D,A,]7/8z/8|B,,-|
B,,7/8z/8|A,,-|A,,7/8z/8|E,-|
E,7/8z/8|A,,-|A,,-|A,,-|
A,,3/4z/4|[A,,-A,-]|[A,,A,]7/8z/8|A,,-|
A,,7/8z/8|E,-|E,7/8z/8|[A,,-A,-]|
[A,,A,]7/8z/8|[D,,-D,-]|[D,,D,]7/8z/8|[A,,,-A,,-]|
[A,,,A,,]7/8z/8|[D,,-D,-]|[D,,-D,-]|[D,,D,]7/8(5:3z/4


